!!!OTL: イケナイ太陽
**kern	**kern	**kern	**kern	**kern	**kern
*part6	*part5	*part4	*part3	*part2	*part1
*staff6	*staff5	*staff4	*staff3	*staff2	*staff1
*I"Bass	*I"Chorus3	*I"Chorus2	*I"Chorus1	*I"Lead	*I"Melody
*I'Bass.	*I'Cho.3	*I'Cho.2	*I'Cho.1	*I'Lead.	*I'Melody
*clefF4	*clefG2	*clefG2	*clefG2	*clefG2	*clefG2
*k[f#]	*k[f#]	*k[f#]	*k[f#]	*k[f#]	*k[f#]
*M4/4	*M4/4	*M4/4	*M4/4	*M4/4	*M4/4
*MM140	*MM140	*MM140	*MM140	*MM140	*MM140
=1	=1	=1	=1	=1	=1
1r	2.r	8ryy	1r	1r	1r
.	.	8ryy	.	.	.
.	.	4ryy	.	.	.
.	.	2r	.	.	.
.	8r	.	.	.	.
.	[8f#	.	.	.	.
=2	=2	=2	=2	=2	=2
1r	8f#L]	2ryy	1r	1r	1r
.	8g	.	.	.	.
.	8gJ	.	.	.	.
.	8r	.	.	.	.
.	8g	2r	.	.	.
.	4r	.	.	.	.
.	[8e	.	.	.	.
=3	=3	=3	=3	=3	=3
1r	8eL]	1r	1r	1r	1r
.	8e	.	.	.	.
.	8eJ	.	.	.	.
.	8r	.	.	.	.
.	8e	.	.	.	.
.	4r	.	.	.	.
.	[8f#	.	.	.	.
=4	=4	=4	=4	=4	=4
1r	8f#L]	1r	1r	2r	1r
.	8f#	.	.	.	.
.	8f#J	.	.	.	.
.	8r	.	.	.	.
.	8f#	.	.	4r	.
.	4r	.	.	.	.
.	.	.	.	8r	.
.	[8f#	.	.	8r	.
=5	=5	=5	=5	=5	=5
1r	8f#L]	1r	1r	1r	1r
.	8g	.	.	.	.
.	8gJ	.	.	.	.
.	8r	.	.	.	.
.	8g	.	.	.	.
.	4r	.	.	.	.
.	[8f#	.	.	.	.
=6	=6	=6	=6	=6	=6
1r	8f#L]	8r	8r	1r	1r
.	8g	8b	8dd	.	.
.	8gJ	8r	8r	.	.
.	8r	8g	8b	.	.
.	8g	2r	2r	.	.
.	4r	.	.	.	.
.	[8e	.	.	.	.
=7	=7	=7	=7	=7	=7
1r	8eL]	8r	8r	1r	1r
.	8e	8b	8dd	.	.
.	8eJ	8r	8r	.	.
.	8r	8g	8b	.	.
.	8e	2r	2r	.	.
.	4r	.	.	.	.
.	[8f#	.	.	.	.
=8	=8	=8	=8	=8	=8
1r	8f#L]	8r	8r	1r	1r
.	8f#	8b	8dd	.	.
.	8f#J	8r	8r	.	.
.	8r	8g	8b	.	.
.	8f#	4.r	4.r	.	.
.	4r	.	.	.	.
.	[8f#	[8b	[8ee	.	.
=9	=9	=9	=9	=9	=9
1r	8f#L]	4b]	4ee]	1r	1r
.	8g	.	.	.	.
.	8gJ	4b	4dd	.	.
.	8r	.	.	.	.
.	8g	4g	4b	.	.
.	8r	.	.	.	.
.	4r	8f#L	8aL	.	.
.	.	8gJ	8gJ	.	.
=10	=10	=10	=10	=10	=10
1r	1r	1r	1r	8bL	8bL
.	.	.	.	8a	8a
.	.	.	.	8g	8g
.	.	.	.	8eJ	8eJ
.	.	.	.	8dL	8dL
.	.	.	.	8e	8e
.	.	.	.	8d	8d
.	.	.	.	[8eJ	[8eJ
=11	=11	=11	=11	=11	=11
1r	4B	4e	4e	1e]	1e]
.	8BL	4e	4e	.	.
.	8BJ	.	.	.	.
.	8r	4e	4e	.	.
.	4B	.	.	.	.
.	.	8eL	8eL	.	.
.	8B	8eJ	8eJ	.	.
=12	=12	=12	=12	=12	=12
1r	4c	4e	4e	4e	4e
.	8r	8dL	8dL	8dL	8dL
.	4c	8dJ	8dJ	8dJ	8dJ
.	.	2r	2r	2r	2r
.	8cL	.	.	.	.
.	8c	.	.	.	.
.	8cJ	.	.	.	.
=13	=13	=13	=13	=13	=13
1r	4A	4d	4d	4d	4d
.	8AL	4d	4d	4d	4d
.	8AJ	.	.	.	.
.	8r	4d	4d	4d	4d
.	4A	.	.	.	.
.	.	8dL	8dL	8dL	8dL
.	8A	8f#J	8f#J	8f#J	8f#J
=14	=14	=14	=14	=14	=14
1r	4B	4f#	4f#	4f#	4f#
.	8r	8eL	8eL	8eL	8eL
.	4B	8eJ	8eJ	8eJ	8eJ
.	.	2r	2r	2r	2r
.	8BL	.	.	.	.
.	8B	.	.	.	.
.	8BJ	.	.	.	.
=15	=15	=15	=15	=15	=15
1r	4G	4e	4b	4e	4e
.	8GL	4e	4b	4e	4e
.	8GJ	.	.	.	.
.	8r	4e	4b	4e	4e
.	4G	.	.	.	.
.	.	8eL	8bL	8eL	8eL
.	8G	8eJ	8bJ	8eJ	8eJ
=16	=16	=16	=16	=16	=16
1r	4A	4e	4b	4e	4e
.	8r	8dL	8aL	8dL	8dL
.	4A	8dJ	8aJ	8dJ	8dJ
.	.	2r	2r	2r	2r
.	8GL	.	.	.	.
.	8A	.	.	.	.
.	8GJ	.	.	.	.
=17	=17	=17	=17	=17	=17
1r	4F#	4d	4a	4d	4d
.	8F#L	4d	4a	4d	4d
.	8F#J	.	.	.	.
.	8r	4d	4a	4d	4d
.	4F#	.	.	.	.
.	.	8dL	8aL	8dL	8dL
.	8F#	8f#J	8ccJ	8f#J	8f#J
=18	=18	=18	=18	=18	=18
1r	4E	4f#	4cc	4f#	4f#
.	8r	8eL	8bL	8eL	8eL
.	4E	8eJ	8bJ	8eJ	8eJ
.	.	2r	2r	2r	2r
.	8EL	.	.	.	.
.	8E	.	.	.	.
.	8EJ	.	.	.	.
=19	=19	=19	=19	=19	=19
4e	1r	1r	1r	1r	1r
4e	.	.	.	.	.
16eLL	.	.	.	.	.
16dJ	.	.	.	.	.
8BJ	.	.	.	.	.
8dL	.	.	.	.	.
8eJ	.	.	.	.	.
=20	=20	=20	=20	=20	=20
8GL	1r	1r	1r	1r	1r
8G	.	.	.	.	.
8A	.	.	.	.	.
[8GJ	.	.	.	.	.
8GL]	.	.	.	.	.
8G	.	.	.	.	.
8E	.	.	.	.	.
8GJ	.	.	.	.	.
=21	=21	=21	=21	=21	=21
4B-X	1r	1r	1r	1r	1r
4B-	.	.	.	.	.
16B-LL	.	.	.	.	.
16AJ	.	.	.	.	.
8GJ	.	.	.	.	.
8AL	.	.	.	.	.
8GJ	.	.	.	.	.
=22	=22	=22	=22	=22	=22
8r	1r	1r	1r	1r	1r
8DL	.	.	.	.	.
8D#X	.	.	.	.	.
8EJ	.	.	.	.	.
2r	.	.	.	.	.
=23	=23	=23	=23	=23	=23
*	*	*8ba	*	*	*
1r	8AL	16E	8cL	8eL	16E
.	.	16r	.	.	16r
.	8AJ	16BLL	8cJ	8eJ	16BLL
.	.	16BJJ	.	.	16BJJ
.	8r	8BL	4.r	4.r	8BL
.	[8A	8BJ	.	.	8BJ
.	8AL]	8BL	.	.	8BL
.	8A	8BJ	4c	4e	8BJ
.	8G	8r	.	.	8r
.	8AJ	8E	[8d	[8f#	8E
*	*	*X8ba	*	*	*
=24	=24	=24	=24	=24	=24
*	*	*8ba	*	*	*
1r	8dL	8BL	8dL]	8f#L]	8BL
.	8dJ	8B	8dJ	8f#J	8B
.	8r	8B	4.r	4.r	8B
.	[8d	8BJ	.	.	8BJ
.	8dL]	8BL	.	.	8BL
.	8d	8BJ	8d	8f#	8BJ
.	8e	8r	4r	4r	8r
.	8dJ	8E	.	.	8E
*	*	*X8ba	*	*	*
=25	=25	=25	=25	=25	=25
*	*	*8ba	*	*	*
1r	8BL	8BL	8dL	8f#L	8BL
.	8BJ	8B	8dJ	8f#J	8B
.	8r	8B	4.r	4.r	8B
.	[8B	8BJ	.	.	8BJ
.	8BL]	8BL	.	.	8BL
.	8B	8B	4d	4f#	8B
.	8d	8B	.	.	8B
.	8BJ	8BJ	[8e	[8g	8BJ
*	*	*X8ba	*	*	*
=26	=26	=26	=26	=26	=26
*	*	*8ba	*	*	*
1r	8eL	8BL	8eL]	8gL]	8BL
.	8eJ	8G	8eJ	8gJ	8G
.	8r	8G	4.r	4.r	8G
.	[8e	8GJ	.	.	8GJ
.	8eL]	8GL	.	.	8GL
.	8e	8G	8e	8g	8G
.	8f#	8GJ	8r	4r	8GJ
*	*	*	*8ba	*	*
.	8eJ	8r	8E	.	8r
*	*	*X8ba	*X8ba	*	*
=27	=27	=27	=27	=27	=27
*	*	*	*8ba	*	*
1r	8AL	8cL	8EL	8eL	8EL
.	8AJ	8cJ	8B	8eJ	8B
.	8r	4.r	8B	4.r	8B
.	[8A	.	8BJ	.	8BJ
.	8AL]	.	4B	.	4B
.	8A	4c	.	4e	.
.	8G	.	8BL	.	8BL
.	8AJ	[8d	8EJ	[8f#	8EJ
*	*	*	*X8ba	*	*
=28	=28	=28	=28	=28	=28
*	*	*	*8ba	*	*
1r	8dL	8dL]	8EL	8f#L]	8EL
.	8dJ	8dJ	8B	8f#J	8B
.	8r	4.r	8B	4.r	8B
.	[8d	.	8BJ	.	8BJ
.	8dL]	.	8BL	.	8BL
.	8d	8d	8E	8f#	8E
.	8e	4r	8E	4r	8E
.	8dJ	.	8EJ	.	8EJ
*	*	*	*X8ba	*	*
=29	=29	=29	=29	=29	=29
*	*	*	*8ba	*	*
1r	2c	4c	8EL	4e	8EL
.	.	.	8B	.	8B
.	.	8cL	8B	8eL	8B
.	.	8cJ	8BJ	8eJ	8BJ
.	2d	4d	8BL	4f#	8BL
.	.	.	8B	.	8B
.	.	8dL	8B	8f#L	8B
.	.	8dJ	8BJ	8f#J	8BJ
*	*	*	*X8ba	*	*
=30	=30	=30	=30	=30	=30
*	*	*	*8ba	*	*
1r	8r	8r	8GL	8r	8GL
.	8eL	8eL	8G	8gL	8G
.	8e	8e	8G	8g	8G
.	8eJ	8eJ	8GJ	8gJ	8GJ
.	8e	8e	4G	8g	4G
.	8r	8r	.	4r	.
.	4r	4r	8r	.	8r
.	.	.	8B	8B	8B
*	*	*	*X8ba	*	*
=31	=31	=31	=31	=31	=31
1r	4A	8dL	8BL	8BL	8BL
.	.	8dJ	8g	8e	8e
.	8AL	8r	8g	8e	8e
.	[8AJ	[8d	[8gJ	[8eJ	[8eJ
.	8AL]	8dL]	8gL]	8eL]	8eL]
.	8A	8d	8g	8e	8e
.	8G	8e	8g	8e	8e
.	8AJ	8dJ	8gJ	8eJ	8eJ
=32	=32	=32	=32	=32	=32
1r	4d	8gL	8gL	8eL	8eL
.	.	8gJ	8f#	8d	8d
.	8dL	8r	8f#	8d	8d
.	[8dJ	[8g	[8f#J	[8dJ	[8dJ
.	8dL]	8gL]	8f#L]	8dL]	8dL]
.	8d	8g	8f#	8d	8d
.	8e	8a	8f#	8d	8d
.	8dJ	8gJ	8dJ	8BJ	8BJ
=33	=33	=33	=33	=33	=33
1r	4g	4b	8f#L	8dL	8dL
.	.	.	8f#	8d	8d
.	8r	8r	8f#	8d	8d
.	4.f#	4.a	8dJ	8BJ	8BJ
.	.	.	8f#L	8dL	8dL
.	.	.	8f#	8d	8d
.	8r	8r	8g	8e	8e
.	[8e	[8g	[8dJ	[8BJ	[8BJ
=34	=34	=34	=34	=34	=34
1r	4e]	4g]	8dL]	8BL]	8BL]
.	.	.	8c	8A	8A
.	8r	8r	8B	8G	8G
.	4d	4f#	[8BJ	[8GJ	[8GJ
.	.	.	2B]	2G]	2G]
.	4.r	4.r	.	.	.
=35	=35	=35	=35	=35	=35
1r	4A	4c	1r	4B	4B
.	8AL	8cL	.	8AL	8AL
.	[8AJ	[8cJ	.	8GJ	8GJ
.	8AL]	8cL]	.	8r	8r
.	8A	8c	.	8BL	8BL
.	8A	8c	.	8A	8A
.	8AJ	8cJ	.	8GJ	8GJ
=36	=36	=36	=36	=36	=36
1r	4A	4c	1r	4B	4B
.	8AL	8cL	.	8AL	8AL
.	[8AJ	[8cJ	.	8GJ	8GJ
.	8AL]	8cL]	.	8r	8r
.	8A	8c	.	8BL	8BL
.	8A	8c	.	8A	8A
.	8AJ	8cJ	.	8GJ	8GJ
=37	=37	=37	=37	=37	=37
1r	8BL	8BL	8d#XL	8BL	8BL
.	8c	8c	8e	8c	8c
.	8B	8B	8d#	8B	8B
.	8cJ	8cJ	8eJ	8cJ	8cJ
.	8BL	8BL	8d#L	8BL	8BL
.	8c	8c	8e	8c	8c
.	8B	8B	8d#	8B	8B
.	8cJ	8cJ	8eJ	8cJ	8cJ
=38	=38	=38	=38	=38	=38
1r	8B	8B	8d#X	8B	8B
.	8r	8r	8r	8r	8r
.	4B	4B	4d#	4B	4B
.	4c#X	4c#X	4e	4c#X	4c#X
.	4d#X	4d#X	4f#	4d#X	4d#X
=39	=39	=39	=39	=39	=39
1r	4G	8dL	8gL	8eL	8eL
.	.	8dJ	8g	8e	8e
.	8r	8r	8f#	8d	8d
.	[8G	[8d	8gJ	8eJ	8eJ
.	8GL]	8dL]	8r	8r	8r
.	8G	8e	8eL	8BL	8BL
.	8A	8f#	8e	8B	8B
.	8GJ	8dJ	8f#J	8dJ	8dJ
=40	=40	=40	=40	=40	=40
1r	4A	8cL	8gL	8eL	8eL
.	.	8cJ	8g	8e	8e
.	8r	8r	8f#	8d	8d
.	[8A	[8c	8gJ	8eJ	8eJ
.	8AL]	8cL]	8r	8r	8r
.	8A	8d	8eL	8cL	8cL
.	8G	8e	8e	8c	8c
.	8AJ	8cJ	8f#J	8dJ	8dJ
=41	=41	=41	=41	=41	=41
1r	8dL	8gL	8gL	8eL	8eL
.	8dJ	8f#	8g	8e	8e
.	8r	8f#	8f#	8d	8d
.	[8d	[8gJ	8f#J	8dJ	8dJ
.	8dL]	8gL]	8eL	8cL	8cL
.	8e	8a	8e	8c	8c
.	8f#	8b	8e	8c	8c
.	8dJ	8aJ	8eJ	8cJ	8cJ
=42	=42	=42	=42	=42	=42
1r	4g	4b	8dL	8AL	8AL
.	.	.	8e	8B	8B
.	4f#	4a	8d	8A	8A
.	.	.	[8eJ	[8BJ	[8BJ
.	4e	4g	4e]	4B]	4B]
.	8d#XL	4f#	8r	8r	8r
.	8dnJ	.	8f#	8d	8d
=43	=43	=43	=43	=43	=43
1r	4G	8dL	8gL	8eL	8eL
.	.	8dJ	8g	8e	8e
.	8r	8r	8f#	8d	8d
.	[8G	[8d	8gJ	8eJ	8eJ
.	8GL]	8dL]	8r	8r	8r
.	8G	8e	8eL	8BL	8BL
.	8A	8f#	8e	8B	8B
.	8GJ	8dJ	8f#J	8dJ	8dJ
=44	=44	=44	=44	=44	=44
1r	4A	8cL	8gL	8eL	8eL
.	.	8cJ	8g	8e	8e
.	8r	8r	8f#	8d	8d
.	[8A	[8c	8gJ	8eJ	8eJ
.	8AL]	8cL]	8r	8r	8r
.	8A	8d	8eL	8eL	8eL
.	8G	8e	8e	8e	8e
.	8AJ	8cJ	8gJ	8gJ	8gJ
=45	=45	=45	=45	=45	=45
1r	4c	4e	8bL	8bL	8bL
.	.	.	8a	8a	8a
.	8cL	8eL	8g	8g	8g
.	8cJ	8eJ	8f#J	8eJ	8eJ
.	4d	4f#	8f#L	8dL	8dL
.	.	.	8g	8e	8e
.	8dL	8f#L	8f#	8d	8d
.	8dJ	8f#J	[8gJ	[8eJ	[8eJ
=46	=46	=46	=46	=46	=46
1r	8r	8r	2g]	2e]	2e]
.	8eL	8gL	.	.	.
.	8e	8g	.	.	.
.	8eJ	8gJ	.	.	.
.	8e	8g	8r	8r	8r
.	4.r	4.r	8eL	8eL	8eL
.	.	.	8e	8e	8e
.	.	.	8gJ	8gJ	8gJ
=47	=47	=47	=47	=47	=47
1r	4c	4e	8bL	8bL	8bL
.	.	.	8a	8a	8a
.	8cL	8eL	8g	8g	8g
.	8cJ	8eJ	8f#J	8eJ	8eJ
.	4d	4f#	8f#L	8dL	8dL
.	.	.	8g	8e	8e
.	8dL	8f#L	8f#	8d	8d
.	8dJ	8f#J	[8gJ	[8eJ	[8eJ
=48	=48	=48	=48	=48	=48
1r	8r	8r	2g]	2e]	2e]
.	8eL	8gL	.	.	.
.	8e	8g	.	.	.
.	8eJ	8gJ	.	.	.
.	8e	8g	8r	8r	8r
.	4.r	4.r	8eL	8eL	8eL
.	.	.	8e	8e	8e
.	.	.	8gJ	8gJ	8gJ
=49	=49	=49	=49	=49	=49
1r	2c	2e	8bL	8bL	8bL
.	.	.	8a	8a	8a
.	.	.	8g	8g	8g
.	.	.	8f#J	8eJ	8eJ
.	4d	4f#	8f#L	8dL	8dL
.	.	.	8g	8e	8e
.	8r	8r	8f#	8d	8d
.	[8d	[8f#	8gJ	[8eJ	[8eJ
=50	=50	=50	=50	=50	=50
1r	8dL]	8f#L]	1g	1e]	1e]
.	8e	8g	.	.	.
.	8eJ	8gJ	.	.	.
.	8r	8r	.	.	.
.	8e	8g	.	.	.
.	4r	4r	.	.	.
.	[8c	[8e	.	.	.
=51	=51	=51	=51	=51	=51
1r	8cL]	8eL]	1r	1r	1r
.	8c	8e	.	.	.
.	8cJ	8eJ	.	.	.
.	8r	8r	.	.	.
.	8c	8e	.	.	.
.	4r	4r	.	.	.
.	[8d	[8f#	.	.	.
=52	=52	=52	=52	=52	=52
1r	8dL]	8f#L]	1r	1r	1r
.	8d	8f#	.	.	.
.	8dJ	8f#J	.	.	.
.	8r	8r	.	.	.
.	8d	8f#	.	.	.
.	4r	4r	.	.	.
.	[8d	[8f#	.	.	.
=53	=53	=53	=53	=53	=53
1r	8dL]	8f#L]	1r	1r	1r
.	8e	8g	.	.	.
.	8eJ	8gJ	.	.	.
.	8r	8r	.	.	.
.	8e	8g	.	.	.
.	4r	4r	.	.	.
.	[8d	[8f#	.	.	.
=54	=54	=54	=54	=54	=54
1r	8dL]	8f#L]	8r	8r	8r
.	8e	8g	8b	8dd	8dd
.	8eJ	8gJ	8r	8r	8r
.	8r	8r	8g	8b	8b
.	8e	8g	2r	2r	2r
.	4r	4r	.	.	.
.	[8c	[8e	.	.	.
=55	=55	=55	=55	=55	=55
1r	8cL]	8eL]	8r	8r	8r
.	8c	8e	8b	8dd	8dd
.	8cJ	8eJ	8r	8r	8r
.	8r	8r	8g	8b	8b
.	8c	8e	2r	2r	2r
.	4r	4r	.	.	.
.	[8d	[8f#	.	.	.
=56	=56	=56	=56	=56	=56
1r	8dL]	8f#L]	8r	8r	8r
.	8d	8f#	8b	8dd	8dd
.	8dJ	8f#J	8r	8r	8r
.	8r	8r	8g	8b	8b
.	8d	8f#	4.r	4.r	4.r
.	4r	4r	.	.	.
.	[8g	[8b	[8b	[8ee	[8ee
=57	=57	=57	=57	=57	=57
1r	4g]	4b]	4b]	4ee]	4ee]
.	4f#	4a	4b	4dd	4dd
.	4e	4g	4g	4b	4b
.	4d	4f#	8f#L	8aL	8aL
.	.	.	8gJ	8gJ	8gJ
=58	=58	=58	=58	=58	=58
1r	4e	4g	8BL	8BL	8BL
.	.	.	8g	8e	8e
.	8r	8r	8g	8e	8e
.	[8e	[8g	[8gJ	[8eJ	[8eJ
.	2e]	2g]	8gL]	8eL]	8eL]
.	.	.	8g	8e	8e
.	.	.	8g	8e	8e
.	.	.	8gJ	8eJ	8eJ
=59	=59	=59	=59	=59	=59
1r	4d	4f#	8gL	8eL	8eL
.	.	.	8f#	8d	8d
.	8r	8r	8f#	8d	8d
.	[8d	[8f#	[8f#J	[8dJ	[8dJ
.	2d]	2f#]	8f#L]	8dL]	8dL]
.	.	.	8f#	8d	8d
.	.	.	8f#	8d	8d
.	.	.	8dJ	8BJ	8BJ
=60	=60	=60	=60	=60	=60
1r	2e	2g	8f#L	8dL	8dL
.	.	.	8f#	8d	8d
.	.	.	8f#	8d	8d
.	.	.	8dJ	8BJ	8BJ
.	2d	2f#	8f#L	8dL	8dL
.	.	.	8f#	8d	8d
.	.	.	8g	8e	8e
.	.	.	[8dJ	[8BJ	[8BJ
=61	=61	=61	=61	=61	=61
1r	2c	2e	8dL]	8BL]	8BL]
.	.	.	8c	8A	8A
.	.	.	8B	8G	8G
.	.	.	[8BJ	[8GJ	[8GJ
.	2B	2d	2B]	2G]	2G]
=62	=62	=62	=62	=62	=62
1r	4c	4e	1r	4B	4B
.	8r	8r	.	8AL	8AL
.	[8c	[8e	.	8GJ	8GJ
.	2c]	2e]	.	8r	8r
.	.	.	.	8BL	8BL
.	.	.	.	8A	8A
.	.	.	.	8GJ	8GJ
=63	=63	=63	=63	=63	=63
1r	4c	4e	1r	4B	4B
.	8r	8r	.	8AL	8AL
.	[8c	[8e	.	8GJ	8GJ
.	2c]	2e]	.	8r	8r
.	.	.	.	8BL	8BL
.	.	.	.	8A	8A
.	.	.	.	8GJ	8GJ
=64	=64	=64	=64	=64	=64
1r	8BL	8BL	8d#XL	8BL	8BL
.	8c	8c	8e	8c	8c
.	8B	8B	8d#	8B	8B
.	8cJ	8cJ	8eJ	8cJ	8cJ
.	8BL	8BL	8d#L	8BL	8BL
.	8c	8c	8e	8c	8c
.	8B	8B	8d#	8B	8B
.	8cJ	8cJ	8eJ	8cJ	8cJ
=65	=65	=65	=65	=65	=65
1r	1B	1B	1d#X	1B	1B
=66	=66	=66	=66	=66	=66
1r	1r	1r	1r	1r	1r
=67	=67	=67	=67	=67	=67
1r	4r	4r	4r	4r	4r
.	4B	4B	4d#X	4B	4B
.	4c#X	4c#X	4e	4c#X	4c#X
.	4d#X	4d#X	4f#	4d#X	4d#X
=68	=68	=68	=68	=68	=68
*k[b-e-a-d-]	*k[b-e-a-d-]	*k[b-e-a-d-]	*k[b-e-a-d-]	*k[b-e-a-d-]	*k[b-e-a-d-]
1r	4r	4r	4r	4r	4r
.	4c	4c	4en	4c	4c
.	4dn	4dn	4f	4dn	4dn
.	4en	4en	4g	4en	4en
=69	=69	=69	=69	=69	=69
1r	4A-	8e-L	8a-L	8fL	8fL
.	.	8e-J	8a-	8f	8f
.	8r	8r	8g	8e-	8e-
.	[8A-	[8e-	8a-J	8fJ	8fJ
.	8A-L]	8e-L]	8r	8r	8r
.	8A-	8f	8fL	8cL	8cL
.	8B-	8g	8f	8dn	8dn
.	8A-J	8enJ	8gJ	8enJ	8enJ
=70	=70	=70	=70	=70	=70
1r	4B-	8d-L	8a-L	8fL	8fL
.	.	8d-J	8a-	8f	8f
.	8r	8r	8g	8e-	8e-
.	[8B-	[8d-	8a-J	8fJ	8fJ
.	8B-L]	8d-L]	8r	8r	8r
.	8B-	8e-	8fL	8cL	8cL
.	8A-	8f	8f	8c	8c
.	8B-J	8gJ	8gJ	8dnJ	8dnJ
=71	=71	=71	=71	=71	=71
1r	8e-L	8a-L	8a-L	8fL	8fL
.	8e-J	8a-	8a-	8f	8f
.	8r	8g	8g	8e-	8e-
.	[8e-	[8a-J	8gJ	8e-J	8e-J
.	8e-L]	8a-L]	8fL	8d-L	8d-L
.	8f	8b-	8f	8d-	8d-
.	8g	8cc	8f	8d-	8d-
.	8e-J	8b-J	8fJ	8d-J	8d-J
=72	=72	=72	=72	=72	=72
1r	4a-	4cc	8e-L	8B-L	8B-L
.	.	.	8f	8c	8c
.	4g	4b-	8e-	8B-	8B-
.	.	.	[8fJ	[8cJ	[8cJ
.	4f	4a-	4f]	4c]	4c]
.	8e-L	4g	8r	8r	8r
.	8enJ	.	8g	8en	8en
=73	=73	=73	=73	=73	=73
1r	4A-	8e-L	8a-L	8fL	8fL
.	.	8e-J	8a-	8f	8f
.	8r	8r	8g	8e-	8e-
.	[8A-	[8e-	8a-J	8fJ	8fJ
.	8A-L]	8e-L]	8r	8r	8r
.	8A-	8f	8fL	8cL	8cL
.	8B-	8g	8f	8dn	8dn
.	8A-J	8enJ	8gJ	8enJ	8enJ
=74	=74	=74	=74	=74	=74
1r	4B-	8d-L	8a-L	8fL	8fL
.	.	8d-J	8a-	8f	8f
.	8r	8r	8g	8e-	8e-
.	[8B-	[8d-	8a-J	8fJ	8fJ
.	8B-L]	8d-L]	8r	8r	8r
.	8B-	8e-	8fL	8fL	8fL
.	8A-	8f	8f	8f	8f
.	8B-J	8gJ	8a-J	8a-J	8a-J
=75	=75	=75	=75	=75	=75
1r	4d-	4f	8ccL	8ccL	8ccL
.	.	.	8b-	8b-	8b-
.	8d-L	8fL	8a-	8a-	8a-
.	8d-J	8fJ	8gJ	8fJ	8fJ
.	4e-	4g	8gL	8e-L	8e-L
.	.	.	8a-	8f	8f
.	8e-L	8gL	8g	8e-	8e-
.	8e-J	8gJ	[8a-J	[8fJ	[8fJ
=76	=76	=76	=76	=76	=76
1r	8r	8r	2a-]	2f]	2f]
.	8fL	8a-L	.	.	.
.	8f	8a-	.	.	.
.	8fJ	8a-J	.	.	.
.	8f	8a-	8r	8r	8r
.	4.r	4.r	8fL	8fL	8fL
.	.	.	8f	8f	8f
.	.	.	8a-J	8a-J	8a-J
=77	=77	=77	=77	=77	=77
1r	4d-	4f	8ccL	8ccL	8ccL
.	.	.	8b-	8b-	8b-
.	8d-L	8fL	8a-	8a-	8a-
.	8d-J	8fJ	8gJ	8fJ	8fJ
.	4e-	4g	8gL	8e-L	8e-L
.	.	.	8a-	8f	8f
.	8e-L	8gL	8g	8e-	8e-
.	8e-J	8gJ	[8a-J	[8fJ	[8fJ
=78	=78	=78	=78	=78	=78
1r	8r	8r	2a-]	2f]	2f]
.	8fL	8a-L	.	.	.
.	8f	8a-	.	.	.
.	8fJ	8a-J	.	.	.
.	8f	8a-	8r	8r	8r
.	4.r	4.r	8fL	8fL	8fL
.	.	.	8f	8f	8f
.	.	.	8a-J	8a-J	8a-J
=79	=79	=79	=79	=79	=79
1r	2d-	2f	8ccL	8ccL	8ccL
.	.	.	8b-	8b-	8b-
.	.	.	8a-	8a-	8a-
.	.	.	8gJ	8fJ	8fJ
.	2e-	2g	8gL	8e-L	8e-L
.	.	.	8a-	8f	8f
.	.	.	8g	8e-	8e-
.	.	.	8a-J	8fJ	8fJ
=80	=80	=80	=80	=80	=80
1r	2.f	2.a-	2.a-	2.f	2.f
.	4r	4r	4r	4r	4r
=81	=81	=81	=81	=81	=81
1r	4c	4f	4f	4f	4f
.	8cL	4f	4f	4f	4f
.	8cJ	.	.	.	.
.	8r	4f	4f	4f	4f
.	4c	.	.	.	.
.	.	8fL	8fL	8fL	8fL
.	8c	8fJ	8fJ	8fJ	8fJ
=82	=82	=82	=82	=82	=82
1r	4d-	4f	4f	4f	4f
.	8r	8e-L	8e-L	8e-L	8e-L
.	4d-	8e-J	8e-J	8e-J	8e-J
.	.	2r	2r	2r	2r
.	8d-L	.	.	.	.
.	8d-	.	.	.	.
.	8d-J	.	.	.	.
=83	=83	=83	=83	=83	=83
1r	4B-	4e-	4e-	4e-	4e-
.	8B-L	4e-	4e-	4e-	4e-
.	8B-J	.	.	.	.
.	8r	4e-	4e-	4e-	4e-
.	4B-	.	.	.	.
.	.	8e-L	8e-L	8e-L	8e-L
.	8B-	8gJ	8gJ	8gJ	8gJ
=84	=84	=84	=84	=84	=84
1r	4c	4g	4g	4g	4g
.	8r	8fL	8fL	8fL	8fL
.	4c	8fJ	8fJ	8fJ	8fJ
.	.	2r	2r	2r	2r
.	8cL	.	.	.	.
.	8c	.	.	.	.
.	8cJ	.	.	.	.
=85	=85	=85	=85	=85	=85
1r	4A-	4f	4cc	4f	4f
.	8A-L	4f	4cc	4f	4f
.	8A-J	.	.	.	.
.	8r	4f	4cc	4f	4f
.	4A-	.	.	.	.
.	.	8fL	8ccL	8fL	8fL
.	8A-	8fJ	8ccJ	8fJ	8fJ
=86	=86	=86	=86	=86	=86
1r	4B-	4f	4cc	4f	4f
.	8r	8e-L	8b-L	8e-L	8e-L
.	4B-	8e-J	8b-J	8e-J	8e-J
.	.	2r	2r	2r	2r
.	8B-L	.	.	.	.
.	8c	.	.	.	.
.	8B-J	.	.	.	.
=87	=87	=87	=87	=87	=87
1r	4G	4e-	4b-	4e-	4e-
.	8GL	4e-	4b-	4e-	4e-
.	8GJ	.	.	.	.
.	8r	4e-	4b-	4e-	4e-
.	4G	.	.	.	.
.	.	8e-L	8b-L	8e-L	8e-L
.	8G	8gJ	8dd-J	8gJ	8gJ
=88	=88	=88	=88	=88	=88
1r	4A-	4g	4dd-	4g	4g
.	8r	8fL	8ccL	8fL	8fL
.	4A-	8fJ	8ccJ	8fJ	8fJ
.	.	2r	2r	2r	2r
.	8A-L	.	.	.	.
.	8A-	.	.	.	.
.	8A-J	.	.	.	.
=89	=89	=89	=89	=89	=89
4f	1r	1r	1r	1r	1r
4f	.	.	.	.	.
16fLL	.	.	.	.	.
16e-J	.	.	.	.	.
8cJ	.	.	.	.	.
8e-L	.	.	.	.	.
8fJ	.	.	.	.	.
=90	=90	=90	=90	=90	=90
8A-L	1r	1r	1r	1r	1r
8A-	.	.	.	.	.
8B-	.	.	.	.	.
[8A-J	.	.	.	.	.
8A-L]	.	.	.	.	.
8A-	.	.	.	.	.
8F	.	.	.	.	.
8A-J	.	.	.	.	.
=91	=91	=91	=91	=91	=91
4Bn	1r	1r	1r	1r	1r
4B	.	.	.	.	.
16BLL	.	.	.	.	.
16B-XJ	.	.	.	.	.
8A-J	.	.	.	.	.
8B-L	.	.	.	.	.
8A-J	.	.	.	.	.
=92	=92	=92	=92	=92	=92
8r	2r	2r	2r	2r	1r
8E-L	.	.	.	.	.
8En	.	.	.	.	.
8FJ	.	.	.	.	.
8r	8r	8r	8r	8r	.
8EL	8e-L	8e-L	8b-L	8B-L	.
8E	8en	8en	8bn	8Bn	.
8FJ	8fJ	8fJ	8ccJ	8cJ	.
=93	=93	=93	=93	=93	=93
8r	8r	8r	8r	8r	1r
8E-L	8e-L	8e-L	8ee-L	8e-L	.
8En	8en	8en	8een	8en	.
8FJ	8fJ	8fJ	8ffJ	8fJ	.
2r	2r	2r	2r	2r	.
==94	==94	==94	==94	==94	==94
1r	1r	1r	1r	1r	1r
==	==	==	==	==	==
*-	*-	*-	*-	*-	*-
